X:46
T:Brenda Stubbert's
C:Jerry Holland
M:4/4
L:1/4
K:C
B/2| A/4A/4A/2   B/2A/2  G/2A/2A/2B/2|  A/4A/4A/2  B/2d/2   e/2d/2d/2A/2
|  G  B/2A/2  B/2G/2G/2B/2| c  B/2A/2  B/2G/2G/2B/2| !
  A/4A/4A/2  B/2A/2    G/2A/2A/2/B/2|  A/4A/4A/2  B/2d/2  e/2d/2d/2a/2 |
  g/2e/2d/2/B/2  G/2A/2B/2d/2|  e  d/2B/2  e/2(A/2A/2):| !
